client/public/img/cbiLogo.svg

<?xml version="1.0" encoding="UTF-8"?>
<svg xmlns="http://www.w3.org/2000/svg" xmlns:xlink="http://www.w3.org/1999/xlink" width="1056px" height="816px" viewBox="0 0 528 408" version="1.1">
<g id="surface1">
<path style=" stroke:none;fill-rule:nonzero;fill:rgb(0%,0%,0%);fill-opacity:1;" d="M 352.941406 189.175781 C 352.941406 238.214844 313.039062 278.117188 264 278.117188 C 214.960938 278.117188 175.058594 238.214844 175.058594 189.175781 C 175.058594 140.132812 214.960938 100.234375 264 100.234375 C 313.039062 100.234375 352.941406 140.132812 352.941406 189.175781 Z M 264 91.773438 C 210.296875 91.773438 166.597656 135.464844 166.597656 189.175781 C 166.597656 242.878906 210.296875 286.578125 264 286.578125 C 317.703125 286.578125 361.402344 242.878906 361.402344 189.175781 C 361.402344 135.464844 317.703125 91.773438 264 91.773438 Z M 264 91.773438 "/>
<path style=" stroke:none;fill-rule:nonzero;fill:rgb(0%,0%,0%);fill-opacity:1;" d="M 299.035156 189.558594 L 298.972656 189.542969 L 299.007812 189.488281 C 301.359375 185.871094 302.332031 181.6875 301.8125 177.390625 C 300.710938 168.320312 292.800781 161.480469 283.40625 161.480469 L 257.007812 161.480469 L 257.007812 173.320312 L 256.929688 173.230469 C 249.519531 164.921875 238.910156 160.683594 227.816406 161.601562 C 210.769531 163.007812 197.015625 176.941406 195.824219 194.015625 C 195.132812 203.84375 198.449219 213.210938 205.152344 220.402344 C 211.769531 227.492188 221.109375 231.5625 230.777344 231.5625 C 247.785156 231.5625 262.65625 218.910156 265.363281 202.125 L 265.433594 201.683594 L 264.992188 201.695312 C 260.382812 201.796875 256.21875 204.394531 254.125 208.46875 C 249.109375 218.234375 238.800781 223.78125 227.863281 222.59375 C 215.390625 221.246094 205.386719 210.761719 204.597656 198.210938 C 204.136719 190.886719 206.640625 183.914062 211.652344 178.574219 C 216.601562 173.304688 223.574219 170.289062 230.777344 170.289062 C 239.609375 170.289062 247.800781 174.703125 252.679688 182.109375 C 255.101562 185.78125 259.074219 187.96875 263.308594 187.96875 L 265.816406 187.96875 L 265.816406 170.289062 L 283.472656 170.289062 C 288.550781 170.289062 292.789062 174.109375 293.117188 178.980469 C 293.289062 181.597656 292.402344 184.085938 290.617188 185.992188 C 288.855469 187.878906 286.367188 188.960938 283.804688 188.960938 L 272.570312 188.960938 L 272.585938 189.347656 C 272.816406 194.066406 276.699219 197.765625 281.433594 197.765625 L 293.75 197.765625 C 300.332031 197.765625 305.953125 202.726562 306.550781 209.054688 C 306.882812 212.617188 305.75 216.03125 303.347656 218.660156 C 300.980469 221.261719 297.617188 222.753906 294.109375 222.753906 L 269.203125 222.753906 C 264.476562 222.753906 260.589844 226.449219 260.355469 231.175781 L 260.34375 231.5625 L 293.578125 231.5625 C 304.992188 231.5625 314.558594 222.898438 315.359375 211.832031 C 316.113281 201.355469 309.25 191.988281 299.035156 189.558594 Z M 299.035156 189.558594 "/>
<path style=" stroke:none;fill-rule:nonzero;fill:rgb(0%,0%,0%);fill-opacity:1;" d="M 313.828125 161.488281 L 313.441406 161.46875 L 313.441406 187.695312 C 313.441406 190.394531 314.652344 192.910156 316.753906 194.601562 C 318.222656 195.777344 319.984375 196.441406 321.859375 196.53125 L 322.25 196.550781 L 322.25 170.332031 C 322.25 165.597656 318.546875 161.71875 313.828125 161.488281 Z M 313.828125 161.488281 "/>
<path style=" stroke:none;fill-rule:nonzero;fill:rgb(0%,0%,0%);fill-opacity:1;" d="M 304.449219 164.40625 C 305.695312 165.433594 307.273438 166.054688 308.890625 166.144531 L 309.28125 166.171875 L 309.28125 154.769531 C 309.28125 150.707031 306.113281 147.347656 302.0625 147.117188 L 301.671875 147.097656 L 301.671875 158.5 C 301.671875 160.789062 302.683594 162.945312 304.449219 164.40625 Z M 304.449219 164.40625 "/>
<path style=" stroke:none;fill-rule:nonzero;fill:rgb(0%,0%,0%);fill-opacity:1;" d="M 318.75 154.675781 C 320.234375 153.226562 321.050781 151.285156 321.050781 149.210938 L 321.050781 139.644531 L 320.664062 139.664062 C 316.609375 139.878906 313.4375 143.222656 313.4375 147.28125 L 313.4375 156.855469 L 313.824219 156.835938 C 315.671875 156.734375 317.417969 155.96875 318.75 154.675781 Z M 318.75 154.675781 "/>
<path style=" stroke:none;fill-rule:nonzero;fill:rgb(0%,0%,0%);fill-opacity:1;" d="M 330.597656 170.96875 C 331.84375 169.722656 332.527344 168.070312 332.527344 166.308594 L 332.527344 157.523438 L 332.128906 157.550781 C 328.6875 157.785156 325.980469 160.671875 325.980469 164.125 L 325.980469 172.910156 L 326.378906 172.882812 C 327.964844 172.777344 329.464844 172.101562 330.597656 170.96875 Z M 330.597656 170.96875 "/>
<path style=" stroke:none;fill-rule:nonzero;fill:rgb(0%,0%,0%);fill-opacity:1;" d="M 180.070312 315.722656 C 176.796875 315.722656 173.988281 314.660156 171.640625 312.539062 L 174.222656 309.441406 C 176.210938 311.050781 178.1875 311.855469 180.15625 311.855469 C 181.066406 311.855469 181.769531 311.691406 182.269531 311.359375 C 182.773438 311.027344 183.023438 310.566406 183.023438 309.980469 L 183.023438 309.921875 C 183.023438 309.355469 182.757812 308.890625 182.226562 308.53125 C 181.699219 308.167969 180.628906 307.789062 179.019531 307.394531 C 177.90625 307.109375 176.988281 306.828125 176.269531 306.554688 C 175.550781 306.28125 174.878906 305.914062 174.253906 305.460938 C 173.628906 305.003906 173.167969 304.4375 172.875 303.753906 C 172.582031 303.070312 172.4375 302.257812 172.4375 301.308594 L 172.4375 301.253906 C 172.4375 299.453125 173.078125 298.003906 174.367188 296.902344 C 175.652344 295.804688 177.328125 295.253906 179.390625 295.253906 C 182.191406 295.253906 184.648438 296.097656 186.769531 297.785156 L 184.5 301.082031 C 182.589844 299.773438 180.867188 299.121094 179.332031 299.121094 C 178.5 299.121094 177.867188 299.28125 177.429688 299.605469 C 176.996094 299.925781 176.777344 300.34375 176.777344 300.855469 L 176.777344 300.910156 C 176.777344 301.554688 177.046875 302.035156 177.585938 302.347656 C 178.125 302.660156 179.285156 303.054688 181.066406 303.527344 C 183.222656 304.113281 184.8125 304.84375 185.832031 305.714844 C 186.855469 306.585938 187.367188 307.847656 187.367188 309.496094 L 187.367188 309.554688 C 187.367188 311.484375 186.699219 312.996094 185.363281 314.085938 C 184.03125 315.175781 182.265625 315.722656 180.070312 315.722656 Z M 193.921875 315.4375 L 193.921875 295.539062 L 198.292969 295.539062 L 198.292969 315.4375 Z M 205.8125 315.4375 L 205.8125 295.539062 L 209.84375 295.539062 L 219.15625 307.789062 L 219.15625 295.539062 L 223.46875 295.539062 L 223.46875 315.4375 L 219.75 315.4375 L 210.128906 302.789062 L 210.128906 315.4375 Z M 240.101562 315.777344 C 237.1875 315.777344 234.761719 314.792969 232.820312 312.820312 C 230.882812 310.851562 229.910156 308.425781 229.910156 305.546875 L 229.910156 305.488281 C 229.910156 302.609375 230.886719 300.171875 232.835938 298.183594 C 234.785156 296.191406 237.261719 295.199219 240.273438 295.199219 C 243.449219 295.199219 246.0625 296.222656 248.105469 298.269531 L 245.324219 301.480469 C 243.640625 299.984375 241.945312 299.234375 240.242188 299.234375 C 238.597656 299.234375 237.226562 299.835938 236.128906 301.039062 C 235.03125 302.242188 234.480469 303.707031 234.480469 305.429688 L 234.480469 305.488281 C 234.480469 307.230469 235.023438 308.710938 236.113281 309.921875 C 237.203125 311.136719 238.578125 311.742188 240.242188 311.742188 C 241.304688 311.742188 242.226562 311.550781 243.011719 311.171875 C 243.796875 310.792969 244.613281 310.207031 245.464844 309.410156 L 248.246094 312.226562 C 247.148438 313.417969 245.972656 314.308594 244.714844 314.898438 C 243.457031 315.484375 241.917969 315.777344 240.101562 315.777344 Z M 254.292969 315.4375 L 254.292969 295.539062 L 269.277344 295.539062 L 269.277344 299.433594 L 258.636719 299.433594 L 258.636719 303.46875 L 268 303.46875 L 268 307.363281 L 258.636719 307.363281 L 258.636719 311.542969 L 269.421875 311.542969 L 269.421875 315.4375 Z M 275.863281 315.4375 L 275.863281 295.539062 L 280.234375 295.539062 L 280.234375 311.457031 L 290.140625 311.457031 L 290.140625 315.4375 Z M 295.988281 315.4375 L 295.988281 295.539062 L 310.972656 295.539062 L 310.972656 299.433594 L 300.332031 299.433594 L 300.332031 303.46875 L 309.695312 303.46875 L 309.695312 307.363281 L 300.332031 307.363281 L 300.332031 311.542969 L 311.117188 311.542969 L 311.117188 315.4375 Z M 322.070312 315.722656 C 319.402344 315.722656 317.238281 314.726562 315.570312 312.738281 L 318.324219 309.667969 C 319.535156 310.992188 320.746094 311.65625 321.957031 311.65625 C 323.738281 311.65625 324.625 310.558594 324.625 308.359375 L 324.625 295.539062 L 329.109375 295.539062 L 329.109375 308.558594 C 329.109375 310.851562 328.484375 312.625 327.238281 313.875 C 326.007812 315.105469 324.285156 315.722656 322.070312 315.722656 Z M 353.335938 312.78125 C 351.320312 314.777344 348.800781 315.777344 345.773438 315.777344 C 342.742188 315.777344 340.230469 314.789062 338.234375 312.808594 C 336.238281 310.828125 335.242188 308.40625 335.242188 305.546875 L 335.242188 305.488281 C 335.242188 302.625 336.25 300.195312 338.265625 298.195312 C 340.28125 296.199219 342.800781 295.199219 345.828125 295.199219 C 348.855469 295.199219 351.367188 296.1875 353.363281 298.167969 C 355.359375 300.148438 356.359375 302.570312 356.359375 305.429688 L 356.359375 305.488281 C 356.359375 308.351562 355.351562 310.78125 353.335938 312.78125 Z M 341.515625 309.921875 C 342.648438 311.136719 344.085938 311.742188 345.828125 311.742188 C 347.570312 311.742188 348.996094 311.144531 350.113281 309.953125 C 351.230469 308.757812 351.789062 307.289062 351.789062 305.546875 L 351.789062 305.488281 C 351.789062 303.746094 351.222656 302.265625 350.085938 301.054688 C 348.949219 299.839844 347.511719 299.234375 345.773438 299.234375 C 344.03125 299.234375 342.601562 299.832031 341.484375 301.027344 C 340.367188 302.21875 339.8125 303.6875 339.8125 305.429688 L 339.8125 305.488281 C 339.8125 307.230469 340.378906 308.710938 341.515625 309.921875 Z M 341.515625 309.921875 "/>
</g>
</svg>

<svg xmlns="http://www.w3.org/2000/svg" viewBox="166.6 91.77 194.8 224"><g id="surface1"><path d="M352.941 189.176c0 49.039-39.902 88.941-88.941 88.941s-88.941-39.902-88.941-88.941c0-49.043 39.902-88.942 88.941-88.942s88.941 39.899 88.941 88.942M264 91.773c-53.703 0-97.402 43.692-97.402 97.403 0 53.703 43.699 97.402 97.402 97.402s97.402-43.7 97.402-97.402c0-53.711-43.699-97.403-97.402-97.403m0 0" style="stroke:none;fill-rule:nonzero;fill:#000;fill-opacity:1"/><path d="m299.035 189.559-.062-.016.035-.055c2.351-3.617 3.324-7.8 2.805-12.097-1.102-9.07-9.012-15.91-18.407-15.91h-26.398v11.84l-.078-.09c-7.41-8.31-18.02-12.547-29.114-11.63-17.046 1.407-30.8 15.34-31.992 32.415-.691 9.828 2.625 19.195 9.328 26.386 6.618 7.09 15.957 11.16 25.625 11.16 17.008 0 31.88-12.652 34.586-29.437l.07-.441-.44.011c-4.61.102-8.774 2.7-10.868 6.774-5.016 9.765-15.324 15.312-26.262 14.125-12.472-1.348-22.476-11.832-23.265-24.383-.461-7.324 2.043-14.297 7.054-19.637 4.95-5.27 11.922-8.285 19.125-8.285 8.832 0 17.024 4.414 21.903 11.82 2.422 3.672 6.394 5.86 10.629 5.86h2.507v-17.68h17.657c5.078 0 9.316 3.82 9.644 8.691a9.26 9.26 0 0 1-2.5 7.012 9.37 9.37 0 0 1-6.812 2.969H272.57l.016.387a8.844 8.844 0 0 0 8.848 8.418h12.316c6.582 0 12.203 4.96 12.8 11.289.333 3.562-.8 6.976-3.202 9.605a12.5 12.5 0 0 1-9.239 4.094h-24.906a8.85 8.85 0 0 0-8.848 8.422l-.011.387h33.234c11.414 0 20.98-8.665 21.781-19.731.754-10.477-6.109-19.844-16.324-22.273m14.793-28.071-.387-.02v26.227c0 2.7 1.211 5.215 3.313 6.907a8.8 8.8 0 0 0 5.105 1.93l.391.019v-26.219a8.844 8.844 0 0 0-8.422-8.844m-9.378 2.918a7.7 7.7 0 0 0 4.44 1.739l.391.027V154.77c0-4.063-3.168-7.422-7.219-7.653l-.39-.02V158.5a7.65 7.65 0 0 0 2.777 5.906m14.301-9.73a7.58 7.58 0 0 0 2.3-5.465v-9.566l-.386.02a7.625 7.625 0 0 0-7.226 7.616v9.574l.386-.02a7.67 7.67 0 0 0 4.926-2.16m11.848 16.294a6.54 6.54 0 0 0 1.93-4.66v-8.786l-.4.028c-3.44.234-6.148 3.12-6.148 6.574v8.785l.399-.027a6.58 6.58 0 0 0 4.219-1.914M180.07 315.723q-4.909-.001-8.43-3.184l2.583-3.098q2.98 2.415 5.933 2.414 1.364.001 2.114-.496.754-.499.753-1.379v-.058q0-.851-.796-1.39-.793-.546-3.207-1.137-1.672-.43-2.75-.84a8.7 8.7 0 0 1-2.016-1.094 4.1 4.1 0 0 1-1.379-1.707c-.293-.684-.437-1.496-.437-2.445v-.055c0-1.8.64-3.25 1.93-4.352q1.927-1.647 5.023-1.648c2.8 0 5.257.844 7.379 2.531l-2.27 3.297q-2.865-1.962-5.168-1.96-1.247 0-1.902.483-.652.482-.653 1.25v.055q0 .968.809 1.438.81.47 3.48 1.18 3.236.879 4.766 2.187 1.535 1.307 1.535 3.781v.059q0 2.896-2.004 4.53-1.999 1.636-5.293 1.638m13.852-.286V295.54h4.371v19.899Zm11.89 0V295.54h4.032l9.312 12.25v-12.25h4.313v19.899h-3.719l-9.621-12.649v12.649Zm34.29.34q-4.37.001-7.282-2.957c-1.937-1.968-2.91-4.394-2.91-7.273v-.059q.001-4.32 2.926-7.304c1.95-1.993 4.426-2.985 7.437-2.985 3.176 0 5.79 1.024 7.832 3.07l-2.78 3.211q-2.527-2.245-5.083-2.246-2.466 0-4.113 1.805-1.648 1.806-1.649 4.39v.06c0 1.741.543 3.222 1.633 4.433q1.634 1.821 4.13 1.82 1.592 0 2.769-.57 1.176-.567 2.453-1.762l2.781 2.817q-1.645 1.787-3.531 2.671-1.888.88-4.613.88m14.191-.34V295.54h14.984v3.895h-10.64v4.035H268v3.894h-9.363v4.18h10.785v3.894Zm21.57 0V295.54h4.371v15.918h9.907v3.98Zm20.125 0V295.54h14.985v3.895h-10.641v4.035h9.363v3.894h-9.363v4.18h10.785v3.894Zm26.082.286c-2.668 0-4.832-.996-6.5-2.985l2.754-3.07q1.816 1.987 3.633 1.988 2.67.002 2.668-3.297v-12.82h4.484v13.02q-.001 3.44-1.87 5.316-1.846 1.847-5.169 1.848m31.266-2.942q-3.023 2.995-7.563 2.996-4.545.001-7.539-2.968-2.993-2.972-2.992-7.262v-.059q0-4.294 3.024-7.293 3.022-2.995 7.562-2.996t7.535 2.969q2.995 2.971 2.996 7.262v.058q0 4.294-3.023 7.293m-11.82-2.86q1.698 1.822 4.312 1.821 2.611 0 4.285-1.789 1.676-1.793 1.676-4.406v-.059q.001-2.615-1.703-4.433-1.705-1.821-4.313-1.82-2.612 0-4.289 1.792c-1.117 1.192-1.671 2.66-1.671 4.403v.058c0 1.742.566 3.223 1.703 4.434m0 0" style="stroke:none;fill-rule:nonzero;fill:#000;fill-opacity:1"/></g></svg>
